images/w3schools.svg

<svg id="eOo3BRFcIqL1" xmlns="http://www.w3.org/2000/svg" xmlns:xlink="http://www.w3.org/1999/xlink" viewBox="0 0 54 50.8" shape-rendering="geometricPrecision" text-rendering="geometricPrecision" project-id="40110f352ea44886b388a8a3282b7e52" export-id="f9eab3f62c834dc6a9cf78d7e5e66b5a" cached="false"><g transform="matrix(1.349904 0 0 1.339832 1.727763 2.162006)"><path d="M31.3987,7.36607c0,0,.9375,1.00447,2.2471,1.00447c1.0342,0,1.7857-.625,1.7857-1.48066c0-1.04911-.9599-1.53274-2.1206-1.53274h-.6845l-.4092-.92262l1.8155-2.15029c.3869-.46131.7142-.75149.7142-.75149s-.2901.01488-.8779.01488h-2.9539v-1.54762h6.0491v1.13095L34.5386,3.93601c1.3691.19345,2.7083,1.16816,2.7083,2.88691c0,1.68899-1.2797,3.25148-3.4895,3.25148-2.1057,0-3.2738-1.3244-3.2738-1.3244l.9151-1.38393Z" fill="#04aa6d"/><path d="M19.5981,9.45695L27.5892,23.6831l3.9434-7.0312L23.988,3.22183h-8.7798L11.5698,9.70249L7.93146,3.22183h-7.894351L11.5252,23.6831l.0446-.0744.0447.0744L19.5981,9.45695Z" fill="#04aa6d"/><path d="M0.118958,33.3257h1.168152c0,.3423.29762.6697.8259.6697.49107,0,.81845-.2456.81845-.573c0-.2827-.21578-.4092-.5878-.491l-.66964-.1712c-1.130955-.2976-1.421134-.9003-1.421134-1.5401c0-.7813.773814-1.4956,1.867564-1.4956.89285,0,1.90476.4539,1.88988,1.57h-1.18304c0-.3423-.3125-.5581-.66964-.5581-.38691,0-.65476.2232-.65476.5357c0,.2605.24553.4093.53571.4762l.80357.2158c1.13095.2902,1.33185.997,1.33185,1.4583c0,1.0194-1.01935,1.5774-2.03869,1.5774-.98959,0-1.994051-.6027-2.016372-1.6741Z" fill="#04aa6d"/><path d="M5.20837,32.3584c0-1.5922,1.27977-2.6339,2.73066-2.6339.87053,0,1.57738.3869,2.03869.9673l-.87798.6994c-.26041-.3125-.68452-.506-1.13839-.506-.87054,0-1.49554.625-1.49554,1.4732c0,.8408.625,1.4807,1.49554,1.4807.45387,0,.87798-.1934,1.13839-.5059l.87798.6994c-.46131.5803-1.16816.9672-2.03869.9672-1.45089,0-2.73066-1.0491-2.73066-2.6414Z" fill="#04aa6d"/><path d="M15.9895,32.0535v2.8125h-1.25v-2.7232c0-.8036-.4836-1.2351-1.0416-1.2351-.573,0-1.2798.3348-1.2798,1.3095v2.6563h-1.25v-7.753h1.2574v3.4896c.2456-.6102,1.0566-.8929,1.5551-.8929c1.2946.0074,2.0089.878,2.0089,2.3363Z" fill="#04aa6d"/><path d="M17.299,32.3584c0-1.5922,1.2351-2.6339,2.6636-2.6339c1.4286,0,2.6786,1.0417,2.6786,2.6339s-1.25,2.6414-2.6786,2.6414c-1.4285,0-2.6636-1.0491-2.6636-2.6414Zm4.0848,0c0-.863-.6474-1.4732-1.4212-1.4732s-1.4062.6102-1.4062,1.4732c0,.878.6324,1.4807,1.4062,1.4807s1.4212-.6027,1.4212-1.4807Z" fill="#04aa6d"/><path d="M23.7053,32.3584c0-1.5922,1.2351-2.6339,2.6637-2.6339s2.6785,1.0417,2.6785,2.6339-1.25,2.6414-2.6785,2.6414c-1.4212,0-2.6637-1.0491-2.6637-2.6414Zm4.0848,0c0-.863-.6473-1.4732-1.4211-1.4732s-1.4063.6102-1.4063,1.4732c0,.878.6324,1.4807,1.4063,1.4807.7812,0,1.4211-.6027,1.4211-1.4807Z" fill="#04aa6d"/><path d="M30.4314,34.8735v-7.753h1.25v7.753h-1.25Z" fill="#04aa6d"/><path d="M33.0431,33.3257h1.1681c0,.3423.2977.6697.8259.6697.4911,0,.8185-.2456.8185-.573c0-.2827-.2158-.4092-.5878-.491l-.6696-.1712c-1.131-.2976-1.4212-.9003-1.4212-1.5401c0-.7813.7738-1.4956,1.8676-1.4956.8928,0,1.9047.4539,1.8899,1.57h-1.1905c0-.3423-.3125-.5581-.6697-.5581-.3869,0-.6547.2232-.6547.5357c0,.2605.2455.4093.5357.4762l.8036.2158c1.1309.2902,1.3318.997,1.3318,1.4583c0,1.0194-1.0193,1.5774-2.0387,1.5774-.9896,0-1.9866-.6027-2.0089-1.6741Z" fill="#04aa6d"/></g></svg>

<?xml version="1.0" encoding="utf-8"?>
<svg viewBox="0 0 54 50.8" xmlns="http://www.w3.org/2000/svg">
  <defs>
    <clipPath id="clip0">
      <rect width="37.2768" height="35" fill="white"/>
    </clipPath>
  </defs>
  <g clip-path="url(#clip0)" transform="matrix(1.451231002808, 0, 0, 1.451231002808, -0.053854331374, -2.645e-9)" style="">
    <path d="M31.3987 7.36607C31.3987 7.36607 32.3362 8.37054 33.6458 8.37054C34.68 8.37054 35.4315 7.74554 35.4315 6.88988C35.4315 5.84077 34.4716 5.35714 33.3109 5.35714H32.6264L32.2172 4.43452L34.0327 2.28423C34.4196 1.82292 34.7469 1.53274 34.7469 1.53274C34.7469 1.53274 34.4568 1.54762 33.869 1.54762H30.9151V0L36.9642 0V1.13095L34.5386 3.93601C35.9077 4.12946 37.2469 5.10417 37.2469 6.82292C37.2469 8.51191 35.9672 10.0744 33.7574 10.0744C31.6517 10.0744 30.4836 8.75 30.4836 8.75L31.3987 7.36607Z" fill="#04AA6D"/>
    <path d="M19.5981 9.45695L27.5892 23.6831L31.5326 16.6519L23.988 3.22183H15.2082L11.5698 9.70249L7.93146 3.22183H0.0371094L11.5252 23.6831L11.5698 23.6087L11.6145 23.6831L19.5981 9.45695Z" fill="#04AA6D"/>
    <path d="M0.118958 33.3257H1.28711C1.28711 33.668 1.58473 33.9954 2.11301 33.9954C2.60408 33.9954 2.93146 33.7498 2.93146 33.4224C2.93146 33.1397 2.71568 33.0132 2.34366 32.9314L1.67402 32.7602C0.543065 32.4626 0.252886 31.8599 0.252886 31.2201C0.252886 30.4388 1.0267 29.7245 2.12045 29.7245C3.0133 29.7245 4.02521 30.1784 4.01033 31.2945H2.82729C2.82729 30.9522 2.51479 30.7364 2.15765 30.7364C1.77074 30.7364 1.50289 30.9596 1.50289 31.2721C1.50289 31.5326 1.74842 31.6814 2.0386 31.7483L2.84217 31.9641C3.97312 32.2543 4.17402 32.9611 4.17402 33.4224C4.17402 34.4418 3.15467 34.9998 2.13533 34.9998C1.14574 34.9998 0.141279 34.3971 0.118958 33.3257Z" fill="#04AA6D"/>
    <path d="M5.20837 32.3584C5.20837 30.7662 6.48814 29.7245 7.93903 29.7245C8.80956 29.7245 9.51641 30.1114 9.97772 30.6918L9.09974 31.3912C8.83933 31.0787 8.41522 30.8852 7.96135 30.8852C7.09081 30.8852 6.46581 31.5102 6.46581 32.3584C6.46581 33.1992 7.09081 33.8391 7.96135 33.8391C8.41522 33.8391 8.83933 33.6457 9.09974 33.3332L9.97772 34.0326C9.51641 34.6129 8.80956 34.9998 7.93903 34.9998C6.48814 34.9998 5.20837 33.9507 5.20837 32.3584Z" fill="#04AA6D"/>
    <path d="M15.9895 32.0535V34.866H14.7395V32.1428C14.7395 31.3392 14.2559 30.9077 13.6979 30.9077C13.1249 30.9077 12.4181 31.2425 12.4181 32.2172V34.8735H11.1681V27.1205H12.4255V30.6101C12.6711 29.9999 13.4821 29.7172 13.9806 29.7172C15.2752 29.7246 15.9895 30.5952 15.9895 32.0535Z" fill="#04AA6D"/>
    <path d="M17.299 32.3584C17.299 30.7662 18.5341 29.7245 19.9626 29.7245C21.3912 29.7245 22.6412 30.7662 22.6412 32.3584C22.6412 33.9507 21.3912 34.9998 19.9626 34.9998C18.5341 34.9998 17.299 33.9507 17.299 32.3584ZM21.3838 32.3584C21.3838 31.4954 20.7364 30.8852 19.9626 30.8852C19.1888 30.8852 18.5564 31.4954 18.5564 32.3584C18.5564 33.2364 19.1888 33.8391 19.9626 33.8391C20.7364 33.8391 21.3838 33.2364 21.3838 32.3584Z" fill="#04AA6D"/>
    <path d="M23.7053 32.3584C23.7053 30.7662 24.9404 29.7245 26.369 29.7245C27.7975 29.7245 29.0475 30.7662 29.0475 32.3584C29.0475 33.9507 27.7975 34.9998 26.369 34.9998C24.9478 34.9998 23.7053 33.9507 23.7053 32.3584ZM27.7901 32.3584C27.7901 31.4954 27.1428 30.8852 26.369 30.8852C25.5951 30.8852 24.9627 31.4954 24.9627 32.3584C24.9627 33.2364 25.5951 33.8391 26.369 33.8391C27.1502 33.8391 27.7901 33.2364 27.7901 32.3584Z" fill="#04AA6D"/>
    <path d="M30.4314 34.8735V27.1205H31.6814V34.8735H30.4314Z" fill="#04AA6D"/>
    <path d="M33.0431 33.3257H34.2112C34.2112 33.668 34.5089 33.9954 35.0371 33.9954C35.5282 33.9954 35.8556 33.7498 35.8556 33.4224C35.8556 33.1397 35.6398 33.0132 35.2678 32.9314L34.5982 32.7602C33.4672 32.4626 33.177 31.8599 33.177 31.2201C33.177 30.4388 33.9508 29.7245 35.0446 29.7245C35.9374 29.7245 36.9493 30.1784 36.9345 31.2945H35.744C35.744 30.9522 35.4315 30.7364 35.0743 30.7364C34.6874 30.7364 34.4196 30.9596 34.4196 31.2721C34.4196 31.5326 34.6651 31.6814 34.9553 31.7483L35.7589 31.9641C36.8898 32.2543 37.0907 32.9611 37.0907 33.4224C37.0907 34.4418 36.0714 34.9998 35.052 34.9998C34.0624 34.9998 33.0654 34.3971 33.0431 33.3257Z" fill="#04AA6D"/>
  </g>
</svg>
